app/dist/common/images/beacon-roofing-supply.svg

<svg fill="none" height="18" width="18" xmlns="http://www.w3.org/2000/svg"><path d="m0 0h18v18h-18z" fill="#025f9e"/><path d="m10.327 8.688h-1.327v5.145c.504.06 1.252-.217 1.563-.363l-.236-4.783zm-2.573-.313h1.246v.313h-1.192l-.3 4.858c-2.717-.976-3.294-3.49-3.243-4.626zm2.567-.375h-1.321v.375h1.321l3.44.549-.273-1.486-3.168.562z" fill="#fff"/><path d="m10.25 7h-1.25v1.027h1.25zm-1.25 0v-1.606l1.25 1.606z" fill="#fff"/><circle cx="9" cy="9" r="4.5" stroke="#fff"/><path d="m9 5.371v-1.096c-3.282.114-4.338 2.126-4.443 3.108l3.192.614h1.251v-.997h-1.25z" fill="#fff"/></svg>

<!-- by TradingView --><svg width="18" height="18" fill="none" xmlns="http://www.w3.org/2000/svg"><path fill="#025F9E" d="M0 0h18v18H0z"/><path d="M10.327 8.688H9v5.145c.504.06 1.252-.217 1.563-.363l-.236-4.783zM7.754 8.375H9v.313H7.808l-.3 4.858c-2.717-.976-3.294-3.49-3.243-4.626l3.489-.545zM10.321 8H9v.375h1.321l3.44.549-.273-1.486L10.32 8z" fill="#fff"/><path d="M10.25 7H9v1.027h1.25V7zM9 7V5.394L10.25 7H9z" fill="#fff"/><circle cx="9" cy="9" r="4.5" stroke="#fff"/><path d="M9 5.371V4.275c-3.282.114-4.338 2.126-4.443 3.108l3.192.614H9V7H7.75L9 5.371z" fill="#fff"/></svg>
